X:1
T:Kirken Den Er Et, 88.88.88.8
T:Ludvig Mattias Lindeman, 1871
T:Kirken Den Er Et, 88.88.88.8
T:Public Domain
C:Ludvig Mattias Lindeman, 1871
Z:Public Domain
%%score ( 1 2 ) ( 3 4 )
L:1/8
M:3/4
K:F
V:1 treble 
V:2 treble 
V:3 bass 
V:4 bass 
V:1
 D2 D2 [EA]2 | [DF]4 D2 | [DF]4 [DG]2 | [^CA]6 | [DA]2 [D=B]2 [Cc]2 | [CA]2 [DF]2 [DG]2 | %6
 (D4- [CD]2) | D6 | D2 [B,D]2 [DA]2 | [CF]4 [B,D]2 | [CF]4 [CG]2 | [CA]6 | [CA]2 [D=B]2 [Cc]2 | %13
 [CA]2 [DF]2 [DG]2 | (D2 ^C4) | D6 | [Fd]2 [Ec]2 [E=B]2 | [Ec]4 [FA]2 | [FA]4 [EG]2 | F6 | %20
 [EA]2 [Ad]2 [^Gf]2 | [Ae]4 [=Bd]2 | [Ac]4 [^G=B]2 | A6 | [EA]2 [DA]2 [^CG]2 | [DF]2 [DG]2 [DF]2 | %26
 (D2 ^C4) | D6 |] %28
V:2
 D2 D2 x2 | x4 D2 | x6 | x6 | x6 | x6 | E6 | D6 | D2 x4 | x6 | x6 | x6 | x6 | x6 | E6 | D6 | x6 | %17
 x6 | x6 | F6 | x6 | x6 | x6 | A6 | x6 | x6 | E6 | D6 |] %28
V:3
 [D,F,]2 [D,B,]2 [^C,A,]2 | [D,A,]4 [C,A,]2 | [B,,B,]4 [B,,D,]2 | [A,,E,]6 | %4
 [F,A,]2 [E,^G,]2 [A,,E,]2 | [A,,F,]2 [B,,D,]2 [G,,B,]2 | (A,4 [G,A,]2) | [D,F,]6 | %8
 [B,,F,]2 [G,,G,]2 [F,,A,]2 | [A,,C]4 [B,,F,]2 | [D,F,]4 [C,E,]2 | F,6 | [F,A,]2 [F,G,]2 [E,G,]2 | %13
 [F,A,]2 [D,A,]2 [B,,A,]2 | ([G,,B,]2 A,2 G,2) | [D,F,]6 | [D,A,]2 [E,A,]2 [E,^G,]2 | %17
 [A,,A,]4 [F,,C]2 | [C,C]4 [C,B,]2 | [F,A,]6 | [G,^C]2 [F,D]2 [D,=B,]2 | [C,E]4 [D,F]2 | %22
 [E,E]4 [E,D]2 | [A,,C]6 | [G,^C]2 [F,D]2 [E,A,]2 | [D,A,]2 [B,,G,]2 [G,,B,]2 | (B,2 A,2 G,2) | %27
 [D,F,]6 |] %28
V:4
 x6 | x6 | x6 | x6 | x6 | x6 | G,,6 | x6 | x6 | x6 | x6 | F,6 | x6 | x6 | x2 A,,4 | x6 | x6 | x6 | %18
 x6 | x6 | x6 | x6 | x6 | x6 | x6 | x6 | A,,6 | x6 |] %28

